epam-assets/icon-sources/18/Dribble.svg

<svg width="18" height="18" viewBox="0 0 18 18" fill="none" xmlns="http://www.w3.org/2000/svg">
<g id="18/Dribble">
<path id="icon" fill-rule="evenodd" clip-rule="evenodd" d="M9 1.5C4.85955 1.5 1.5 4.85955 1.5 9C1.5 13.1405 4.85955 16.5 9 16.5C13.1323 16.5 16.5 13.1405 16.5 9C16.5 4.85955 13.1323 1.5 9 1.5ZM13.9539 4.95715C14.8487 6.04717 15.3856 7.43818 15.4018 8.94309C15.1903 8.90241 13.0754 8.47125 10.9442 8.73966C10.8953 8.634 10.8547 8.52009 10.8059 8.40619C10.6757 8.09709 10.5292 7.77983 10.3829 7.47885C12.7418 6.51898 13.8157 5.13612 13.9539 4.95715ZM9 2.60629C10.6269 2.60629 12.1155 3.21637 13.2462 4.21692C13.1323 4.37961 12.1643 5.673 9.88669 6.52712C8.83734 4.59924 7.67408 3.02115 7.49513 2.77712C7.97505 2.66323 8.47941 2.60629 9 2.60629ZM6.27495 3.20825C6.44577 3.436 7.5846 5.02224 8.65022 6.90943C5.65672 7.70661 3.01302 7.69035 2.72831 7.69035C3.14316 5.70553 4.48536 4.05423 6.27495 3.20825ZM2.59002 9.00816C2.59002 8.94309 2.59002 8.87803 2.59002 8.81287C2.86659 8.82103 5.97398 8.86172 9.17081 7.90185C9.35794 8.25975 9.52875 8.62584 9.69141 8.99184C9.61012 9.01631 9.52059 9.04069 9.43922 9.06506C6.13667 10.1307 4.37961 13.0429 4.2332 13.2869C3.21638 12.1562 2.59002 10.6513 2.59002 9.00816ZM9 15.41C7.51953 15.41 6.15293 14.9056 5.07103 14.0597C5.18493 13.8237 6.48645 11.3183 10.0982 10.0575C10.1144 10.0493 10.1226 10.0493 10.1389 10.0412C11.0418 12.3758 11.4078 14.3363 11.5054 14.8975C10.7327 15.231 9.88669 15.41 9 15.41ZM12.571 14.3119C12.506 13.9214 12.1643 12.0504 11.3265 9.74841C13.3357 9.43116 15.0927 9.95175 15.3124 10.025C15.0358 11.8064 14.0108 13.3438 12.571 14.3119Z" fill="#6C6F80"/>
</g>
</svg>

<svg xmlns="http://www.w3.org/2000/svg" width="18" height="18" fill="none" viewBox="0 0 18 18">
  <path fill="#6C6F80" fill-rule="evenodd" d="M9 1.5C4.86 1.5 1.5 4.86 1.5 9c0 4.14 3.36 7.5 7.5 7.5 4.132 0 7.5-3.36 7.5-7.5 0-4.14-3.368-7.5-7.5-7.5Zm4.954 3.457a6.376 6.376 0 0 1 1.448 3.986c-.212-.04-2.327-.472-4.458-.203-.049-.106-.09-.22-.138-.334-.13-.309-.277-.626-.423-.927 2.359-.96 3.433-2.343 3.57-2.522ZM9 2.607c1.627 0 3.116.61 4.246 1.61-.114.163-1.082 1.456-3.36 2.31-1.049-1.928-2.212-3.506-2.39-3.75.479-.114.983-.17 1.504-.17Zm-2.725.601A40.55 40.55 0 0 1 8.65 6.909c-2.993.798-5.637.781-5.922.781a6.436 6.436 0 0 1 3.547-4.482Zm-3.685 5.8v-.195c.277.008 3.384.049 6.58-.911.188.358.359.724.521 1.09l-.252.073c-3.302 1.066-5.06 3.978-5.206 4.222A6.391 6.391 0 0 1 2.59 9.008ZM9 15.41a6.362 6.362 0 0 1-3.929-1.35c.114-.236 1.415-2.742 5.027-4.003.016-.008.025-.008.04-.016a26.482 26.482 0 0 1 1.367 4.857A6.3 6.3 0 0 1 9 15.41Zm3.571-1.098c-.065-.39-.407-2.262-1.245-4.564 2.01-.317 3.767.204 3.986.277a6.352 6.352 0 0 1-2.741 4.287Z" clip-rule="evenodd"/>
</svg>
